P3
# Created by GIMP version 2.10.36 PNM plug-in
16 16
255
87
87
87
51
51
51
51
51
51
51
51
51
51
51
51
87
87
87
151
151
151
151
151
151
7
7
7
151
151
151
87
87
87
51
51
51
51
51
51
51
51
51
51
51
51
87
87
87
87
87
87
87
87
87
151
151
151
151
151
151
151
151
151
151
151
151
151
151
151
151
151
151
51
51
51
151
151
151
151
151
151
151
151
151
7
7
7
87
87
87
87
87
87
51
51
51
87
87
87
7
7
7
51
51
51
51
51
51
7
7
7
51
51
51
51
51
51
51
51
51
151
151
151
51
51
51
87
87
87
87
87
87
87
87
87
151
151
151
87
87
87
87
87
87
87
87
87
151
151
151
87
87
87
87
87
87
87
87
87
7
7
7
87
87
87
151
151
151
87
87
87
87
87
87
51
51
51
51
51
51
51
51
51
51
51
51
51
51
51
87
87
87
87
87
87
151
151
151
151
151
151
51
51
51
51
51
51
51
51
51
51
51
51
51
51
51
51
51
51
51
51
51
151
151
151
151
151
151
151
151
151
151
151
151
151
151
151
7
7
7
51
51
51
51
51
51
87
87
87
87
87
87
87
87
87
51
51
51
51
51
51
51
51
51
87
87
87
7
7
7
87
87
87
87
87
87
51
51
51
51
51
51
7
7
7
87
87
87
151
151
151
151
151
151
87
87
87
99
99
99
87
87
87
51
51
51
151
151
151
151
151
151
87
87
87
87
87
87
87
87
87
87
87
87
151
151
151
151
151
151
151
151
151
7
7
7
87
87
87
87
87
87
87
87
87
51
51
51
51
51
51
51
51
51
51
51
51
51
51
51
51
51
51
7
7
7
51
51
51
51
51
51
51
51
51
51
51
51
87
87
87
87
87
87
87
87
87
151
151
151
151
151
151
7
7
7
151
151
151
51
51
51
87
87
87
87
87
87
87
87
87
151
151
151
151
151
151
151
151
151
151
151
151
151
151
151
151
151
151
151
151
151
87
87
87
51
51
51
51
51
51
51
51
51
51
51
51
51
51
51
51
51
51
87
87
87
7
7
7
87
87
87
87
87
87
51
51
51
51
51
51
51
51
51
151
151
151
87
87
87
87
87
87
87
87
87
151
151
151
51
51
51
51
51
51
151
151
151
151
151
151
51
51
51
7
7
7
51
51
51
151
151
151
151
151
151
151
151
151
87
87
87
87
87
87
87
87
87
7
7
7
87
87
87
87
87
87
87
87
87
51
51
51
87
87
87
87
87
87
87
87
87
151
151
151
151
151
151
87
87
87
87
87
87
87
87
87
151
151
151
151
151
151
7
7
7
87
87
87
51
51
51
51
51
51
51
51
51
51
51
51
51
51
51
51
51
51
51
51
51
151
151
151
151
151
151
51
51
51
51
51
51
51
51
51
51
51
51
51
51
51
87
87
87
87
87
87
151
151
151
51
51
51
151
151
151
7
7
7
87
87
87
87
87
87
51
51
51
51
51
51
51
51
51
7
7
7
51
51
51
87
87
87
87
87
87
151
151
151
151
151
151
87
87
87
87
87
87
87
87
87
51
51
51
51
51
51
51
51
51
51
51
51
51
51
51
87
87
87
87
87
87
151
151
151
151
151
151
87
87
87
51
51
51
51
51
51
87
87
87
51
51
51
51
51
51
51
51
51
51
51
51
7
7
7
151
151
151
151
151
151
87
87
87
87
87
87
87
87
87
87
87
87
51
51
51
51
51
51
51
51
51
87
87
87
87
87
87
